X:608
T:Miss Betsey Robertson
R:Reel
C:Robert MacIntosh
B:The Athole Collection
M:C|
L:1/8
K:G
c|d3g BGdB|Aaag fdef|gfgd BcdB|cAdc BGG:|
c|BGDG EGDG|ABcB cedc|BGEG EGce|dBcA BGGc|
BGDG EGDG|ABcB cedc|Bdgd ceag|fdef gGG||

